swiss/communes/0064.svg

<?xml version="1.0" encoding="UTF-8" standalone="no"?>
<!-- Created with Inkscape (http://www.inkscape.org/) -->
<svg
   xmlns:svg="http://www.w3.org/2000/svg"
   xmlns="http://www.w3.org/2000/svg"
   xmlns:xlink="http://www.w3.org/1999/xlink"
   version="1.0"
   width="214.45331"
   height="251.19872"
   id="svg2780">
  <defs
     id="defs2782" />
  <g
     transform="translate(-16.716535,-805.79037)"
     id="layer1">
    <path
       d="M 17.716535,806.79037 L 21.579318,969.05925 C 24.338441,1084.9657 223.54793,1084.9657 226.30706,969.05925 L 230.16985,806.79037 L 17.716535,806.79037 z"
       id="path3282"
       style="fill:#ffffff;fill-opacity:1;fill-rule:evenodd;stroke:none;stroke-width:2;stroke-linecap:butt;stroke-miterlimit:4;stroke-dashoffset:0;stroke-opacity:1" />
    <path
       d="M 17.724442,806.79944 L 20.630692,928.36194 L 227.28694,928.36194 L 230.16194,806.79944 L 17.724442,806.79944 z"
       id="path5084"
       style="fill:#d43a29;fill-opacity:1;fill-rule:evenodd;stroke:#000000;stroke-width:0.99921262;stroke-linecap:butt;stroke-linejoin:miter;stroke-miterlimit:4;stroke-dasharray:none;stroke-opacity:1" />
    <path
       d="M 144.8594,925.56895 C 144.8594,903.3859 168.06628,883.46241 180.97678,894.91062 C 186.8603,900.12776 188.06629,925.5314 209.42819,919.41457 C 201.72572,899.82801 233.48684,878.56485 213.59151,855.05663 C 193.57391,831.40394 133.36038,855.80967 133.57277,924.98766 C 133.78518,879.01575 153.39299,864.68525 152.74421,844.14061 C 152.20626,827.10509 137.05614,823.29454 130.10207,818.34539 C 125.31082,814.93551 126.45384,811.52927 123.94319,811.52927 C 121.43253,811.52927 122.57555,814.93551 117.7843,818.34539 C 110.83024,823.29454 95.680125,827.10509 95.142162,844.14061 C 94.493386,864.68525 114.1012,879.01575 114.3136,924.98766 C 114.52599,855.80967 54.312467,831.40394 34.294871,855.05663 C 14.399541,878.56485 46.160666,899.82801 38.458188,919.41457 C 59.82009,925.5314 61.026085,900.12776 66.909605,894.91062 C 79.820096,883.46241 103.02697,903.3859 103.02697,925.56895"
       id="path3709"
       style="fill:#ffffff;fill-opacity:1;fill-rule:evenodd;stroke:#000000;stroke-width:0.99999994px;stroke-linecap:butt;stroke-linejoin:round;stroke-opacity:1" />
    <path
       d="M 144.13074,931.18873 C 144.13074,986.17206 205.32834,972.05809 182.55308,949.64743 C 203.36917,949.68106 224.31793,972.78999 205.7574,995.17836 C 187.27338,1017.4744 131.51589,1001.157 131.51589,931.74968 C 131.51589,976.30858 149.46289,993.92924 148.87337,1009.0628 C 148.28407,1024.1905 135.82867,1030.2748 130.45766,1034.3081 C 125.08665,1038.3414 126.23939,1041.2385 123.94319,1041.2385 C 121.64699,1041.2385 122.79973,1038.3414 117.42872,1034.3081 C 112.05771,1030.2748 99.602311,1024.1905 99.013016,1009.0628 C 98.423494,993.92924 116.37049,976.30858 116.37049,931.74968 C 116.37049,1001.157 60.613002,1017.4744 42.128981,995.17836 C 23.56845,972.78999 44.517208,949.68106 65.333308,949.64743 C 42.558047,972.05809 103.75564,986.17206 103.75564,931.18873"
       id="path5335"
       style="fill:#d43a29;fill-opacity:1;fill-rule:evenodd;stroke:#000000;stroke-width:0.99999988px;stroke-linecap:butt;stroke-linejoin:round;stroke-opacity:1" />
    <path
       d="M 123.94319,822.04722 L 123.94319,1024.2453"
       id="path4245"
       style="fill:none;fill-opacity:0.75;fill-rule:evenodd;stroke:#000000;stroke-width:0.9992125;stroke-linecap:round;stroke-linejoin:miter;stroke-miterlimit:4;stroke-dasharray:none;stroke-opacity:1" />
    <g
       transform="translate(-0.8623825,0)"
       id="g5119"
       style="stroke:#000000">
      <path
         d="M 63.331727,872.71038 C 115.9264,873.88977 130.03305,973.52236 78.248971,982.10772"
         id="path4259"
         style="fill:none;fill-opacity:0.75;fill-rule:evenodd;stroke:#000000;stroke-width:0.99999994px;stroke-linecap:round;stroke-linejoin:miter;marker:none;marker-start:none;marker-mid:none;marker-end:none;stroke-miterlimit:4;stroke-dasharray:none;stroke-dashoffset:0;stroke-opacity:1;visibility:visible;display:inline;overflow:visible;enable-background:accumulate" />
      <use
         transform="matrix(-1,0,0,1,249.61115,0)"
         id="use5070"
         style="stroke:#000000"
         x="0"
         y="0"
         width="248.03149"
         height="248.03149"
         xlink:href="#path4259" />
    </g>
    <rect
       width="51.336262"
       height="12.155193"
       x="98.275063"
       y="928.34644"
       id="rect4247"
       style="fill:#d43a29;fill-opacity:1;fill-rule:evenodd;stroke:#000000;stroke-width:0.99999994px;stroke-linecap:butt;stroke-linejoin:round;marker:none;marker-start:none;marker-mid:none;marker-end:none;stroke-miterlimit:4;stroke-dasharray:none;stroke-dashoffset:0;stroke-opacity:1;visibility:visible;display:inline;overflow:visible;enable-background:accumulate" />
    <rect
       width="51.336262"
       height="12.090394"
       x="98.275063"
       y="916.25604"
       id="rect5092"
       style="fill:#ffffff;fill-opacity:1;fill-rule:evenodd;stroke:#000000;stroke-width:0.99999994px;stroke-linecap:butt;stroke-linejoin:round;marker:none;marker-start:none;marker-mid:none;marker-end:none;stroke-miterlimit:4;stroke-dasharray:none;stroke-dashoffset:0;stroke-opacity:1;visibility:visible;display:inline;overflow:visible;enable-background:accumulate" />
    <path
       d="M 99.033983,921.8844 L 148.8524,921.8844 C 152.45035,921.8844 155.3469,924.78095 155.3469,928.3789 L 92.539484,928.3789 C 92.539484,924.78095 95.43603,921.8844 99.033983,921.8844 z"
       id="rect4249"
       style="fill:#ffffff;fill-opacity:1;fill-rule:evenodd;stroke:#000000;stroke-width:0.99999994px;stroke-linecap:butt;stroke-linejoin:miter;marker:none;marker-start:none;marker-mid:none;marker-end:none;stroke-miterlimit:4;stroke-dashoffset:0;stroke-opacity:1;visibility:visible;display:inline;overflow:visible;enable-background:accumulate" />
    <path
       d="M 99.033983,934.84094 L 148.8524,934.84094 C 152.45035,934.84094 155.3469,931.94439 155.3469,928.34644 L 92.539484,928.34644 C 92.539484,931.94439 95.43603,934.84094 99.033983,934.84094 z"
       id="path5095"
       style="fill:#d43a29;fill-opacity:1;fill-rule:evenodd;stroke:#000000;stroke-width:0.99999994px;stroke-linecap:butt;stroke-linejoin:miter;marker:none;marker-start:none;marker-mid:none;marker-end:none;stroke-miterlimit:4;stroke-dashoffset:0;stroke-opacity:1;visibility:visible;display:inline;overflow:visible;enable-background:accumulate" />
    <path
       d="M 17.716535,806.79037 L 21.579318,969.05925 C 24.338441,1084.9657 223.54793,1084.9657 226.30706,969.05925 L 230.16985,806.79037 L 17.716535,806.79037 z"
       id="path5367"
       style="fill:none;fill-opacity:1;fill-rule:evenodd;stroke:#000000;stroke-width:2;stroke-linecap:butt;stroke-miterlimit:4;stroke-dashoffset:0;stroke-opacity:1" />
  </g>
</svg>

<svg xmlns="http://www.w3.org/2000/svg" xmlns:xlink="http://www.w3.org/1999/xlink" version="1.0" width="214.453" height="251.199"><path d="m17.717 806.79 3.862 162.27c2.76 115.906 201.969 115.906 204.728 0l3.863-162.27H17.717z" style="fill:#fff;fill-opacity:1;fill-rule:evenodd;stroke:none;stroke-width:2;stroke-linecap:butt;stroke-miterlimit:4;stroke-dashoffset:0;stroke-opacity:1" transform="translate(-16.717 -805.79)"/><path d="m17.724 806.8 2.907 121.562h206.656l2.875-121.563H17.724z" style="fill:#d43a29;fill-opacity:1;fill-rule:evenodd;stroke:#000;stroke-width:.99921262;stroke-linecap:butt;stroke-linejoin:miter;stroke-miterlimit:4;stroke-dasharray:none;stroke-opacity:1" transform="translate(-16.717 -805.79)"/><path d="M144.86 925.569c0-22.183 23.206-42.107 36.117-30.658 5.883 5.217 7.09 30.62 28.451 24.504-7.702-19.587 24.059-40.85 4.164-64.358-20.018-23.653-80.232.753-80.02 69.93.213-45.971 19.821-60.302 19.172-80.846-.538-17.036-15.688-20.846-22.642-25.796-4.791-3.41-3.648-6.816-6.159-6.816-2.51 0-1.367 3.407-6.159 6.816-6.954 4.95-22.104 8.76-22.642 25.796-.649 20.544 18.96 34.875 19.172 80.847.212-69.178-60.002-93.584-80.02-69.931-19.894 23.508 11.867 44.771 4.164 64.358 21.362 6.116 22.568-19.287 28.452-24.504 12.91-11.449 36.117 8.475 36.117 30.658" style="fill:#fff;fill-opacity:1;fill-rule:evenodd;stroke:#000;stroke-width:.99999994px;stroke-linecap:butt;stroke-linejoin:round;stroke-opacity:1" transform="translate(-16.717 -805.79)"/><path d="M144.13 931.189c0 54.983 61.198 40.87 38.423 18.458 20.816.034 41.765 23.143 23.204 45.531-18.484 22.296-74.241 5.979-74.241-63.428 0 44.559 17.947 62.18 17.357 77.313-.589 15.127-13.044 21.212-18.415 25.245-5.371 4.033-4.219 6.93-6.515 6.93-2.296 0-1.143-2.897-6.514-6.93-5.371-4.033-17.827-10.118-18.416-25.245-.59-15.134 17.357-32.754 17.357-77.313 0 69.407-55.757 85.724-74.241 63.428-18.56-22.388 2.388-45.497 23.204-45.53-22.775 22.41 38.423 36.524 38.423-18.46" style="fill:#d43a29;fill-opacity:1;fill-rule:evenodd;stroke:#000;stroke-width:.99999988px;stroke-linecap:butt;stroke-linejoin:round;stroke-opacity:1" transform="translate(-16.717 -805.79)"/><path d="M123.943 822.047v202.198" style="fill:none;fill-opacity:.75;fill-rule:evenodd;stroke:#000;stroke-width:.9992125;stroke-linecap:round;stroke-linejoin:miter;stroke-miterlimit:4;stroke-dasharray:none;stroke-opacity:1" transform="translate(-16.717 -805.79)"/><g transform="translate(-17.579 -805.79)" style="stroke:#000"><path d="M63.332 872.71c52.594 1.18 66.701 100.812 14.917 109.398" id="a" style="fill:none;fill-opacity:.75;fill-rule:evenodd;stroke:#000;stroke-width:.99999994px;stroke-linecap:round;stroke-linejoin:miter;marker:none;marker-start:none;marker-mid:none;marker-end:none;stroke-miterlimit:4;stroke-dasharray:none;stroke-dashoffset:0;stroke-opacity:1;visibility:visible;display:inline;overflow:visible;enable-background:accumulate"/><use transform="matrix(-1 0 0 1 249.611 0)" style="stroke:#000" width="248.031" height="248.031" xlink:href="#a"/></g><path style="fill:#d43a29;fill-opacity:1;fill-rule:evenodd;stroke:#000;stroke-width:.99999994px;stroke-linecap:butt;stroke-linejoin:round;marker:none;marker-start:none;marker-mid:none;marker-end:none;stroke-miterlimit:4;stroke-dasharray:none;stroke-dashoffset:0;stroke-opacity:1;visibility:visible;display:inline;overflow:visible;enable-background:accumulate" d="M98.275 928.346h51.336v12.155H98.275z" transform="translate(-16.717 -805.79)"/><path style="fill:#fff;fill-opacity:1;fill-rule:evenodd;stroke:#000;stroke-width:.99999994px;stroke-linecap:butt;stroke-linejoin:round;marker:none;marker-start:none;marker-mid:none;marker-end:none;stroke-miterlimit:4;stroke-dasharray:none;stroke-dashoffset:0;stroke-opacity:1;visibility:visible;display:inline;overflow:visible;enable-background:accumulate" d="M98.275 916.256h51.336v12.09H98.275z" transform="translate(-16.717 -805.79)"/><path d="M99.034 921.884h49.818a6.48 6.48 0 0 1 6.495 6.495H92.539a6.48 6.48 0 0 1 6.495-6.495z" style="fill:#fff;fill-opacity:1;fill-rule:evenodd;stroke:#000;stroke-width:.99999994px;stroke-linecap:butt;stroke-linejoin:miter;marker:none;marker-start:none;marker-mid:none;marker-end:none;stroke-miterlimit:4;stroke-dashoffset:0;stroke-opacity:1;visibility:visible;display:inline;overflow:visible;enable-background:accumulate" transform="translate(-16.717 -805.79)"/><path d="M99.034 934.84h49.818a6.48 6.48 0 0 0 6.495-6.494H92.539a6.48 6.48 0 0 0 6.495 6.495z" style="fill:#d43a29;fill-opacity:1;fill-rule:evenodd;stroke:#000;stroke-width:.99999994px;stroke-linecap:butt;stroke-linejoin:miter;marker:none;marker-start:none;marker-mid:none;marker-end:none;stroke-miterlimit:4;stroke-dashoffset:0;stroke-opacity:1;visibility:visible;display:inline;overflow:visible;enable-background:accumulate" transform="translate(-16.717 -805.79)"/><path d="m17.717 806.79 3.862 162.27c2.76 115.906 201.969 115.906 204.728 0l3.863-162.27H17.717z" style="fill:none;fill-opacity:1;fill-rule:evenodd;stroke:#000;stroke-width:2;stroke-linecap:butt;stroke-miterlimit:4;stroke-dashoffset:0;stroke-opacity:1" transform="translate(-16.717 -805.79)"/></svg>
